X: 109203
T: BRAES ABOON BONAW
Q: "Strathspey."
R:  Strathspey.
%R: strathspey
N: This is version 2, for ABC software that understands voice overlays.
B: James Kerr "Merry Melodies" v.1 p.9 s.2 #3
Z: 2017 John Chambers <jc:trillian.mit.edu>
M: C
L: 1/8
%%slurgraces yes
%%graceslurs yes
K: D
|:\
vD>vFuA>uB A<F A<d | D>FA>F {F}E2 (E<F) |\
D>FA>B d>ef>e | vd>uB d<F E2 (E<F) ::\
d>ef>e d<A F>A | d>ef>A B2 (B<e) |\
d>ef>d e<f d>uA | x2 A<F E2 "^2nd"(E<d) & B<d x2 x2 "_1st"(E<F) :|

%%sep 1 1 500
%%sep 1 1 500

